X:1
T:Rule Britannia
T:Thomas Arne
T:Majestically  Tempo = 100 - 110
%%score { 1 | 2 }
L:1/8
M:4/4
K:C
V:1 treble nm="Piano" snm="Pno."
V:2 bass 
V:1
!f! !4!E6[Q:1/4=105] (E2 | !tenuto!F2) !tenuto!F2 z2 (E2 | F2) E2 D2 C2 | B,4 z2 .!2!D2 | (G4 F4) | %5
 (EC)FD G2 F2 | E4 D4 | C2 z2 z4 | !4!E6 (E2 | .F2) .F2 z2 (E2 | F2) E2 D2 C2 | B,4 z2 .!2!D2 | %12
 !>!G4 !>!F4 | !>!E!>!C!>!F!>!D !>!G2 !>!F2 | !>!E2 z2 !>!D2 z2 | !>!C8 |] %16
V:2
 !1!C6 (C2 | !tenuto!A,2) !tenuto!A,2 z2 (C2 | F,8) | !4!G,4 z4 | z4 z2 !1!G,2 | C,2 D,2 E,2 F,2 | %6
 G,8 | z2!>(! (!4!!4!G,2!>)! A,2) B,2 |!p! !1!C6 (C2 | .A,2) .A,2 z2 (C2 | F,8) | %11
 !4!G,4 z2!f! .!1!G,2 | !>!E,4 !>!D,4 |!<(! !>!C,2!<)! !>!D,2 !>!E,2 !>!F,2 | %14
!ff! !>!G,2 z2 !>!G,2 z2 | !>![C,E,]8 |] %16

